X:1
T:Hermosa, 76.76 D
T:Hermosa, 76.76 D
T:George Frederick Root, 1881
T:Public Domain Courtesy of the Cyber Hymnal™
C:George Frederick Root, 1881
Z:Public Domain
Z:Courtesy of the Cyber Hymnal™
%%score ( 1 2 ) ( 3 4 )
L:1/8
Q:1/4=80
M:2/4
K:D
V:1 treble 
V:2 treble 
V:3 bass 
V:4 bass 
V:1
 [FA][^E^G]/[FA]/ [=GB][FA] | [FA] [DF]2 z | [DF][D^E]/[DF]/ [FA][DF] | [CE]3 z | %4
 [CA][B,^G]/[CA]/ [DB] ([CA]/[DB]/) | [Ec] [EA]2 z | [B,E][^B,^D]/[CE]/ [=DF][D^G] | [CA]3 z | %8
 [Gc][GB]/[FA]/ [EG][CE] | [DF] [FA]2 z | [GB]G/[GB]/ [Gd][GB] | [FA]3 z | %12
 [Ad][Ac]/[Ad]/ [Ae][Ad] | [Gd] [GB]2 z | [FA][^E^G]/[FA]/ [=GB][Gc] | [Fd]3 z |] %16
V:2
 x4 | x4 | x4 | x4 | x4 | x4 | x4 | x4 | x4 | x4 | x G/ x5/2 | x4 | x4 | x4 | x4 | x4 |] %16
V:3
 [D,D][D,D]/[D,D]/ [D,D][D,D] | [D,D] [D,A,]2 z | [D,A,][D,^G,]/[D,A,]/ [D,D][D,A,] | [A,,A,]3 z | %4
 E,E,/E,/ E,E, | [A,,A,] [C,A,]2 z | [E,A,][E,A,]/[E,A,]/ [E,^G,][E,B,] | [A,,A,]3 z | %8
 [A,E][A,E]/[A,E]/ [A,C]A, | [D,A,] [D,D]2 z | [G,D][G,B,]/[G,B,]/ [G,B,][G,D] | [D,D]3 z | %12
 [F,A,][F,A,]/[F,A,]/ [F,A,][F,A,] | [G,B,] [G,D]2 z | [A,D][A,D]/[A,D]/ [A,C][A,E] | [D,D]3 z |] %16
V:4
 x4 | x4 | x4 | x4 | E,E,/E,/ E,E, | x4 | x4 | x4 | x3 A, | x4 | x4 | x4 | x4 | x4 | x4 | x4 |] %16

